symbols/web/domain_disabled/materialsymbolsrounded/domain_disabled_wght200grad200_48px.svg

<svg xmlns="http://www.w3.org/2000/svg" height="48" width="48"><path d="m44.4 39-2.2-2.2V15.5H20.9l.55.55V6.6H11.9L9.75 4.4h11.7q.9 0 1.55.65t.65 1.55v6.7H42.2q.9 0 1.55.65t.65 1.55ZM5.8 42.25q-.9 0-1.55-.625T3.6 40.05V5.85L.95 3.2Q.6 2.8.625 2.425.65 2.05 1 1.6q.3-.3.775-.3.475 0 .825.3L44.9 44q.35.35.35.775 0 .425-.35.775-.35.35-.8.35-.45 0-.75-.35l-3.25-3.3Zm0-2.2h6.75V33.3H5.8Zm0-8.9h6.75v-6.7H5.8Zm0-8.95h6.75v-6.75H5.8Zm8.95 17.85h6.7V33.3h-6.7Zm0-8.9h6.7v-6.7h-6.7Zm8.9 8.9h14.2L31.1 33.3h-7.45Zm12.4-15.65h-2.2v-2.2h2.2Z"/></svg>

<svg xmlns="http://www.w3.org/2000/svg" height="48" width="48"><path d="M44.4 39 42.2 36.8V15.5H20.9L21.45 16.05V6.6H11.9L9.75 4.4H21.45Q22.35 4.4 23 5.05Q23.65 5.7 23.65 6.6V13.3H42.2Q43.1 13.3 43.75 13.95Q44.4 14.6 44.4 15.5ZM5.8 42.25Q4.9 42.25 4.25 41.625Q3.6 41 3.6 40.05V5.85L0.95 3.2Q0.6 2.8 0.625 2.425Q0.65 2.05 1 1.6Q1.3 1.3 1.775 1.3Q2.25 1.3 2.6 1.6L44.9 44Q45.25 44.35 45.25 44.775Q45.25 45.2 44.9 45.55Q44.55 45.9 44.1 45.9Q43.65 45.9 43.35 45.55L40.1 42.25ZM5.8 40.05H12.55V33.3H5.8ZM5.8 31.15H12.55V24.45H5.8ZM5.8 22.2H12.55V15.45H5.8ZM14.75 40.05H21.45V33.3H14.75ZM14.75 31.15H21.45V24.45H14.75ZM23.65 40.05H37.85L31.1 33.3H23.65ZM36.05 24.4H33.85V22.2H36.05Z"/></svg>
